X: 14653
T: Gan Ainm
R: hornpipe
M: 4/4
K: Dmajor
dB|:AAFA DAFc|dBec dBAF|G2BG F2AF|FEGE dcBA|
(3.A.c.A FA DAFc|deec Aceg|gffe eddc|1 dAFA D2 dB:|2 dAFA D2 (3.B.c.d||
|:e3c Aceg|gfaf d2 (3Bcd|BdAd BdAd|Bgfe dedB|
(3.A.c.A FA DAFc|deec Aceg|gffe eddc|1 dAFA D2 (3.B.c.d:|2 dAFA D2 dB||

